X: 917
T: Spotted Pony
C:Traditional as played by Laurie Lewis
B: jims roots
M:C|
L:1/8
R: reel
Q: 1/4=100
K:D
V:1 
(3A,B,C | "D"D2DF "A"EDEG | "D"FEFA "G"BABd | "D"ABde fded | "A"c2AB AFEF |
"D"DCDF "A"EDEG | "D"FEFA "G"BABd | "D"ABde faed | "A"cBAc "D"dBAF ||
"D"[D2A]DF "A"[E2A]EG | "D"FEFA "G"[D(A]B2) B | "D"ABde fded | "A"c2AB AFEF |
"D"DCDF "A"EDEG | "D"FEFA "G"BABd | "D"ABde faed | "A"cBAc "D"d2FG ||
"D"[GA]JA2a (=f^f2)a | "G"fedB edAF | "D"D2fa fedA | "A"BAAB AGFG |
    "D"Adea (=f^f2)a | "G"fedf edAF | "D"DFAd "A"BABc | "D"e(d3 d2)FG ||
"D"[GA]JA2a (=f^f2)a | "G"fedf edAF | "D"D2fa fedA | "A"BAAB AGFG |
    "D"Adea (=f^f2)a | "G"fedf edAF | "D"DFAd "A"BABc | "D"e(d3 d4) ||
% abcbook-tune_id 6298c287771450b05f570466


% abcbook-boost 0
% abcbook-tablature 
% abcbook-transpose 
% abcbook-lastupdated 1654178440747
% abcbook-soundfonts 
% abcbook-repeats 1


